src/svgicons/dashboard.svg

<svg width="20" height="20" viewBox="0 0 20 20" fill="none" xmlns="http://www.w3.org/2000/svg">
<path fill-rule="evenodd" clip-rule="evenodd" d="M3 20C1.34315 20 0 18.6568 0 17V9.33607C0 8.48561 0.360964 7.67512 0.993106 7.10619L7.9931 0.80619C9.13402 -0.220633 10.866 -0.220635 12.0069 0.806189L19.0069 7.10619C19.639 7.67512 20 8.48561 20 9.33607V17C20 18.6568 18.6569 20 17 20H3ZM18.5 9.33607V17C18.5 17.8284 17.8284 18.5 17 18.5H14V13C14 11.3431 12.6569 9.99998 11 9.99998H9C7.34315 9.99998 6 11.3431 6 13V18.5H3C2.17157 18.5 1.5 17.8284 1.5 17V9.33607C1.5 8.91084 1.68048 8.50559 1.99655 8.22113L8.99655 1.92113C9.56701 1.40772 10.433 1.40772 11.0034 1.92113L18.0034 8.22113C18.3195 8.50559 18.5 8.91084 18.5 9.33607ZM7.5 18.5V13C7.5 12.1716 8.17157 11.5 9 11.5H11C11.8284 11.5 12.5 12.1716 12.5 13V18.5H7.5Z" fill="white"/>
</svg>

<!-- Generated by IcoMoon.io -->
<svg version="1.1" xmlns="http://www.w3.org/2000/svg" width="20" height="20" viewBox="0 0 20 20">
<title>dashboard</title>
<path fill="#fff" d="M3 20h14c1.657 0 3-1.343 3-3v-7.664c0-0.85-0.361-1.661-0.993-2.23l-7-6.3c-1.141-1.027-2.873-1.027-4.014 0l-7 6.3c-0.632 0.569-0.993 1.379-0.993 2.23v7.664c0 1.657 1.343 3 3 3zM18.5 9.336v7.664c0 0.828-0.672 1.5-1.5 1.5h-3v-5.5c0-1.657-1.343-3-3-3h-2c-1.657 0-3 1.343-3 3v5.5h-3c-0.828 0-1.5-0.672-1.5-1.5v-7.664c0-0.425 0.18-0.83 0.497-1.115l7-6.3c0.57-0.513 1.436-0.513 2.007 0l7 6.3c0.316 0.284 0.497 0.69 0.497 1.115zM7.5 18.5v-5.5c0-0.828 0.672-1.5 1.5-1.5h2c0.828 0 1.5 0.672 1.5 1.5v5.5h-5z"></path>
</svg>
